!!!COM: Ce/cile Chaminade
!!!CNT: Francais
!!!TXO: Francais
!!!OTL: "Plaintes d'amour"
!!!LYR: Adenis, Euge\ne
!!!ENC: Amanda Harris
!!!YOR: Album of Songs, Volume 1
!!!YOR: Da Capo Press
!!!ODT: 1891/
!!NB: Vocal melody and text encoded
**kern	**silbe
*clefG2	*
*k[]	*
*M4/4	*
=2	=2
2r	.
4r	.
8r	.
{8e	{L'a-
=3	=3
4.g	-mour,
8e	l'a-
4.f	-mour,
8g	fleur
=4	=4
8b	que
4dd	Dieu
8cc	be/-
2g	-nit,
=5	=5
8cc	Quel-
8dd	-que
4.ee	temps
8cc	s'e/-
8b	-pa-
8a	-nou-
=6	=6
4.g}	-it,}
8r	.
4r	.
8r	.
{8g	{Mais
=7	=7
4b-	il
4b-	res-
4b-	-semble
8cc-	a\
8dd	la
=8	=8
2ee-	ro-
4b-	-se;
8b-	Me/-
8b-	-te/-
=9	=9
4bn	-o-
4b	-re
4b	du
4b	des-
=10	=10
[2b	-tin
4.b]}	|}
{8g	{Il
=11	=11
4.g	brille,
8e	il
4.f	brille
8g	a-
=12	=12
8b	-vec
4dd	le
8cc	ma-
2g	-tin
=13	=13
4cc	Pour
4g	s'e/-
8e	-teindre
8f	a\
8g	la
8a	nuit
=14	=14
2e	clo-
2d	|
=15	=15
4.c}	-se.}
8r	.
2r	.
=16	=16
2r	.
4r	.
8r	.
{8e	{L'a-
=17	=17
4.g	-mour,
8e	l'a-
4.f	-mour,
8g	pur
=18	=18
8b	ray-
4dd	-on
8cc	ver-
4.g	-meil,
8g	C'est
=19	=19
8cc	la
8dd	sai-
4.ee	-son
8cc	|
8b	du
8a	so-
=20	=20
4.g}	-leil,}
8r	.
4r	.
8r	.
{8g	{Mais
=21	=21
4b-	vite
4b-	il
4b-	nous
8cc-	a-
8dd	-ban-
=22	=22
2ee-	-don-
4b-	-ne.
8r	.
8b-	Jou-
=23	=23
4bn	-et
4b	fra-
4b	-gi-
8b	-le
8b	du
=24	=24
[2b	temps,
4.b]}	|}
{8g	{Il
=25	=25
4.g	nai^t,
8e	il
4.f	nai^t
8g	a-
=26	=26
8b	-vec
4dd	le
8cc	prin-
2g	-temps
=27	=27
4cc	Pour
4g	mou
8e	rir
8f	a-
8g	-vec
8a	l'au-
=28	=28
2e	-tom-
2d	|
=29	=29
4.c}	-ne.}
8r	.
2r	.
=30	=30
2r	.
4r	.
8r	.
{8e	{L'a-
=31	=31
4.g	-mour,
8e	l'a-
4.f	-mour,
8g	lyre
=32	=32
8b	au
4dd	chant
8cc	vain-
2g	-queur
=33	=33
8cc	Fait
8dd	gai^-
4.ee	-ment
8cc	vi-
8b	-brer
8a	le
=34	=34
4.g}	coeur.}
8r	.
4r	.
8r	.
{8g	{Mais
=35	=35
4b-	qu'il
4b-	nous
4b-	cau-
8cc-	-se
8dd	d'a-
=36	=36
2ee-	-lar-
4.b-	-mes!
8r	.
=37	=37
4bn	Ca-
8b	-pri-
8b	-ci-
4b	-eux
8b	et
8b	chan-
=38	=38
[2b	-geant
2b]}	|}
=39	=39
{4.g	{Il
8e	com-
4.f	-mence
8g	en
=40	=40
8b	sou-
4dd	|
8cc	-ri-
2g	-ant,
=41	=41
4cc	Pour
4g	fi-
8e	-nir
8f	a-
8g	-vec
8a	des
=42	=42
2e	lar-
2d	|
=43	=43
4.c}	-mes!}
8r	.
2r	.
*-	*-
